assets/images/bell.svg

<svg height="512pt" viewBox="-21 0 512 512" width="512pt" xmlns="http://www.w3.org/2000/svg"><path d="m453.332031 229.332031c-8.832031 0-16-7.167969-16-16 0-61.269531-23.847656-118.847656-67.15625-162.175781-6.25-6.25-6.25-16.382812 0-22.632812s16.382813-6.25 22.636719 0c49.34375 49.363281 76.519531 115.007812 76.519531 184.808593 0 8.832031-7.167969 16-16 16zm0 0"/><path d="m16 229.332031c-8.832031 0-16-7.167969-16-16 0-69.800781 27.179688-135.445312 76.542969-184.789062 6.25-6.25 16.386719-6.25 22.636719 0s6.25 16.386719 0 22.636719c-43.328126 43.304687-67.179688 100.882812-67.179688 162.152343 0 8.832031-7.167969 16-16 16zm0 0"/><path d="m234.667969 512c-44.117188 0-80-35.882812-80-80 0-8.832031 7.167969-16 16-16s16 7.167969 16 16c0 26.476562 21.523437 48 48 48 26.472656 0 48-21.523438 48-48 0-8.832031 7.167969-16 16-16s16 7.167969 16 16c0 44.117188-35.882813 80-80 80zm0 0"/><path d="m410.667969 448h-352c-20.589844 0-37.335938-16.746094-37.335938-37.332031 0-10.925781 4.757813-21.269531 13.058594-28.375 32.445313-27.414063 50.941406-67.261719 50.941406-109.480469v-59.480469c0-82.34375 66.988281-149.332031 149.335938-149.332031 82.34375 0 149.332031 66.988281 149.332031 149.332031v59.480469c0 42.21875 18.496094 82.066406 50.730469 109.332031 8.511719 7.253907 13.269531 17.597657 13.269531 28.523438 0 20.585937-16.746094 37.332031-37.332031 37.332031zm-176-352c-64.707031 0-117.335938 52.628906-117.335938 117.332031v59.480469c0 51.644531-22.632812 100.414062-62.078125 133.757812-.746094.640626-1.921875 1.964844-1.921875 4.097657 0 2.898437 2.433594 5.332031 5.335938 5.332031h352c2.898437 0 5.332031-2.433594 5.332031-5.332031 0-2.132813-1.171875-3.457031-1.878906-4.054688-39.488282-33.386719-62.121094-82.15625-62.121094-133.800781v-59.480469c0-64.703125-52.628906-117.332031-117.332031-117.332031zm0 0"/><path d="m234.667969 96c-8.832031 0-16-7.167969-16-16v-64c0-8.832031 7.167969-16 16-16s16 7.167969 16 16v64c0 8.832031-7.167969 16-16 16zm0 0"/></svg>

<svg id="bell" xmlns="http://www.w3.org/2000/svg" width="469.332" height="512" viewBox="0 0 469.332 512">
  <path id="Path_4" data-name="Path 4" d="M453.332,229.332a16.006,16.006,0,0,1-16-16A227.877,227.877,0,0,0,370.176,51.156a16.005,16.005,0,0,1,22.637-22.633,259.72,259.72,0,0,1,76.52,184.809,16.006,16.006,0,0,1-16,16Zm0,0" fill="#fff"/>
  <path id="Path_5" data-name="Path 5" d="M16,229.332a16.006,16.006,0,0,1-16-16A259.583,259.583,0,0,1,76.543,28.543,16.007,16.007,0,1,1,99.18,51.18,227.724,227.724,0,0,0,32,213.332a16.006,16.006,0,0,1-16,16Zm0,0" fill="#fff"/>
  <path id="Path_6" data-name="Path 6" d="M234.668,512a80.084,80.084,0,0,1-80-80,16,16,0,0,1,32,0,48,48,0,0,0,96,0,16,16,0,0,1,32,0A80.084,80.084,0,0,1,234.668,512Zm0,0" fill="#fff"/>
  <path id="Path_7" data-name="Path 7" d="M410.668,448h-352a37.34,37.34,0,0,1-24.277-65.707,142.973,142.973,0,0,0,50.941-109.48v-59.48C85.332,130.989,152.32,64,234.668,64S384,130.989,384,213.332v59.48a142.937,142.937,0,0,0,50.73,109.332A37.319,37.319,0,0,1,410.668,448Zm-176-352A117.458,117.458,0,0,0,117.332,213.332v59.48A174.843,174.843,0,0,1,55.254,406.57a5.322,5.322,0,0,0-1.922,4.1A5.393,5.393,0,0,0,58.668,416h352A5.393,5.393,0,0,0,416,410.668a5.255,5.255,0,0,0-1.879-4.055A174.9,174.9,0,0,1,352,272.812v-59.48A117.457,117.457,0,0,0,234.668,96Zm0,0" fill="#fff"/>
  <path id="Path_8" data-name="Path 8" d="M234.668,96a16.006,16.006,0,0,1-16-16V16a16,16,0,0,1,32,0V80A16.006,16.006,0,0,1,234.668,96Zm0,0" fill="#fff"/>
</svg>
